school/img/country/PH.svg

<svg width="13" height="12" viewBox="0 0 13 12" fill="none" xmlns="http://www.w3.org/2000/svg">
<rect x="0.25" y="0.25" width="12.5" height="11.5" rx="1.75" fill="white" stroke="#F5F5F5" stroke-width="0.5"/>
<mask id="mask0" mask-type="alpha" maskUnits="userSpaceOnUse" x="0" y="0" width="13" height="12">
<rect x="0.25" y="0.25" width="12.5" height="11.5" rx="1.75" fill="white" stroke="white" stroke-width="0.5"/>
</mask>
<g mask="url(#mask0)">
<path fill-rule="evenodd" clip-rule="evenodd" d="M0 12L13 12V5.60001H5.77778L6.19048 6.00001L0 12Z" fill="#DD1C34"/>
<path fill-rule="evenodd" clip-rule="evenodd" d="M13 5.6H5.77778L0 0H13V5.6Z" fill="#0D4BC3"/>
<path fill-rule="evenodd" clip-rule="evenodd" d="M0.928542 2.39999C1.09949 2.39999 1.23807 2.2209 1.23807 1.99999C1.23807 1.77908 1.09949 1.59999 0.928542 1.59999C0.757597 1.59999 0.619019 1.77908 0.619019 1.99999C0.619019 2.2209 0.757597 2.39999 0.928542 2.39999ZM4.64283 6.39999C4.81377 6.39999 4.95235 6.2209 4.95235 5.99999C4.95235 5.77907 4.81377 5.59999 4.64283 5.59999C4.47188 5.59999 4.3333 5.77907 4.3333 5.99999C4.3333 6.2209 4.47188 6.39999 4.64283 6.39999ZM1.23807 9.99999C1.23807 10.2209 1.09949 10.4 0.928542 10.4C0.757597 10.4 0.619019 10.2209 0.619019 9.99999C0.619019 9.77908 0.757597 9.59999 0.928542 9.59999C1.09949 9.59999 1.23807 9.77908 1.23807 9.99999ZM2.10415 6.79596L1.57439 7.84775L1.7753 6.61989C1.74297 6.58577 1.71336 6.5475 1.68695 6.50572L0.736824 6.76536L1.5507 6.08075C1.54864 6.05419 1.54759 6.02725 1.54759 5.99999C1.54759 5.97273 1.54864 5.94579 1.5507 5.91924L0.736824 5.23462L1.68695 5.49426C1.71336 5.45248 1.74297 5.41422 1.7753 5.38009L1.57439 4.15223L2.10415 5.20402C2.1247 5.20135 2.14555 5.19999 2.16664 5.19999C2.18773 5.19999 2.20858 5.20135 2.22913 5.20402L2.75889 4.15223L2.55798 5.38009C2.59031 5.41422 2.61992 5.45248 2.64632 5.49426L3.59645 5.23462L2.78257 5.91924C2.78463 5.94579 2.78568 5.97273 2.78568 5.99999C2.78568 6.02725 2.78463 6.05419 2.78257 6.08074L3.59645 6.76536L2.64632 6.50572C2.61992 6.5475 2.59031 6.58577 2.55798 6.61989L2.75889 7.84775L2.22913 6.79596C2.20858 6.79863 2.18773 6.79999 2.16664 6.79999C2.14554 6.79999 2.1247 6.79863 2.10415 6.79596Z" fill="#FDD64D"/>
</g>
</svg>

<svg width="13" height="12" fill="none" xmlns="http://www.w3.org/2000/svg"><rect x=".25" y=".25" width="12.5" height="11.5" rx="1.75" fill="#fff" stroke="#F5F5F5" stroke-width=".5"/><mask id="a" maskUnits="userSpaceOnUse" x="0" y="0" width="13" height="12"><rect x=".25" y=".25" width="12.5" height="11.5" rx="1.75" fill="#fff" stroke="#fff" stroke-width=".5"/></mask><g mask="url(#a)" fill-rule="evenodd" clip-rule="evenodd"><path d="M0 12h13V5.6H5.778l.412.4L0 12z" fill="#DD1C34"/><path d="M13 5.6H5.778L0 0h13v5.6z" fill="#0D4BC3"/><path d="M.929 2.4c.17 0 .31-.18.31-.4 0-.22-.14-.4-.31-.4-.171 0-.31.18-.31.4 0 .22.139.4.31.4zm3.714 4c.17 0 .31-.18.31-.4 0-.22-.14-.4-.31-.4-.171 0-.31.18-.31.4 0 .22.139.4.31.4zM1.238 10c0 .22-.139.4-.31.4-.17 0-.309-.18-.309-.4 0-.22.139-.4.31-.4.17 0 .31.18.31.4zm.866-3.204l-.53 1.052.201-1.228a.743.743 0 01-.088-.114l-.95.26.814-.685a1.044 1.044 0 010-.162l-.814-.684.95.26a.744.744 0 01.088-.115l-.2-1.228.53 1.052a.485.485 0 01.124 0l.53-1.052-.201 1.228a.743.743 0 01.088.114l.95-.26-.813.685a1.044 1.044 0 010 .162l.813.684-.95-.26a.742.742 0 01-.088.115l.2 1.228-.529-1.052a.485.485 0 01-.125 0z" fill="#FDD64D"/></g></svg>
